**kern	**kern
*part1	*part1
*staff2	*staff1
*I"Piano	*
*clefF4	*clefG2
*k[b-]	*k[b-]
=1	=1
*	*^
4.BBn	8r	8ryy
.	(16eLL	4A 4d
.	16gJ	.
.	8fJ)	.
*	*v	*v
=	=
4.FF 4.C	8r
.	8c:L 8f: 8a:
.	8A:J 8f:
=	=
*	*^
4.BBn	8r	8ryy
.	(16dLL	4A
.	16eJ	.
.	8dJ)	.
*	*v	*v
=	=
8FF 8C	(16ALL
.	16c
8r	16d
.	16e
8r	16d
.	16cJJ
=	=
4.r	16ALL
.	16c
.	16f
.	16a
.	16cc
.	16ffJJ
=	=
4.r	8aa)
.	8r
.	8r
=	=
8FF' 8C	8A' 8f
8r	8r
8r	8r
=	=
8FFF	4.r
8r	.
8r	.
==	==
*-	*-
!!!system-decoration: {(s1,s2)}
